src/md-subway.svg

<svg xmlns="http://www.w3.org/2000/svg" width="512" height="512" xml:space="preserve"><path d="M256 48c-93.864 0-176 10.668-176 85.334v213.332c0 41.604 33.062 74.666 74.667 74.666L128 448v16h256v-16l-26.667-26.668c41.604 0 74.667-33.062 74.667-74.666V133.334C432 58.668 349.864 48 256 48zm-96 336c-18.136 0-32-13.865-32-32 0-18.137 13.864-32 32-32s32 13.863 32 32c0 18.135-13.864 32-32 32zm80-144H128v-96h112v96zm112 144c-18.136 0-32-13.865-32-32 0-18.137 13.864-32 32-32s32 13.863 32 32c0 18.135-13.864 32-32 32zm32-144H272v-96h112v96z"/></svg>

<?xml version="1.0" encoding="utf-8"?>
<!-- Generator: Adobe Illustrator 16.2.1, SVG Export Plug-In . SVG Version: 6.00 Build 0)  -->
<!DOCTYPE svg PUBLIC "-//W3C//DTD SVG 1.1//EN" "http://www.w3.org/Graphics/SVG/1.1/DTD/svg11.dtd">
<svg version="1.1" id="Layer_1" xmlns="http://www.w3.org/2000/svg" xmlns:xlink="http://www.w3.org/1999/xlink" x="0px" y="0px"
	 width="512px" height="512px" viewBox="0 0 512 512" enable-background="new 0 0 512 512" xml:space="preserve">
<g>
	<path d="M256,48c-93.864,0-176,10.668-176,85.334v213.332c0,41.604,33.062,74.666,74.667,74.666L128,448v16h256v-16l-26.667-26.668
		c41.604,0,74.667-33.062,74.667-74.666V133.334C432,58.668,349.864,48,256,48z M160,384c-18.136,0-32-13.865-32-32
		c0-18.137,13.864-32,32-32s32,13.863,32,32C192,370.135,178.136,384,160,384z M240,240H128v-96h112V240z M352,384
		c-18.136,0-32-13.865-32-32c0-18.137,13.864-32,32-32s32,13.863,32,32C384,370.135,370.136,384,352,384z M384,240H272v-96h112V240z
		"/>
</g>
</svg>
